X:1536
T:Air 36
R:Air
C:Gruijtters 1746
O:Flanders
Z:Paul Hardy's Parts Tunebook 2022 (see www.paulhardy.net). Creative Commons cc by-nc-sa licenced.
M:4/4
L:1/4
Q:1/4=140
K:Am
A | "Am"A e c d | e2 e A | "G"B d "Am"c B | A3 A | "F"f f f e | "Dm"d2 "G"d g | "Am"c c c "G"B | "C"c3 :|
|:c| "Am"e f "G"g G |"Am"c2 c c | "F"f e "Dm"d c | "E"B3 c | "Am"A B c A | "Dm"d2 d e | "Am"c d "E"e ^G | "Am"A3 :|
|: e|"Am"e a "E"a ^g | "F"a g/f/ "Am"e e | e a a "G"g | "B"^f2 "Am"e :|
|: g|"F"f e "Dm"d f | "Am"e d/e/ c e | "Dm"d c "Am"B c |"G"d/c/B/c/ "Am"A2 |
"Am"A/B/c/d/ "Em"e e | "Am"e a "E"^g2 | "Am"A/B/c/d/ e d/c/ | "E"B2 "Am"A :| A2 ||

